build/img/icons/logo-title.svg

<svg width="100" height="23" viewBox="0 0 100 23" fill="none" xmlns="http://www.w3.org/2000/svg">
<path d="M12.8753 12.1009C12.8753 15.0481 10.5953 17.1285 7.40999 17.1285H1.74353C0.737646 17.1285 0 16.3656 0 15.3255V1.803C0 0.762806 0.737646 0 1.74353 0H5.90117C8.98588 0 11.1653 1.94169 11.1653 4.78487C11.1653 6.06777 10.7294 7.10796 9.9247 7.87077C11.7688 8.56423 12.8753 10.0552 12.8753 12.1009ZM3.28588 3.01655V6.9346H5.63294C6.97411 6.9346 7.81235 6.17179 7.81235 4.95824C7.81235 3.74468 6.97411 3.01655 5.63294 3.01655H3.28588ZM9.48882 11.9969C9.48882 10.6446 8.61705 9.84713 7.14176 9.84713H3.28588V14.1466H7.14176C8.61705 14.1466 9.48882 13.3491 9.48882 11.9969Z" fill="#293157"/>
<path d="M27.0244 10.7142C27.0244 14.4588 24.0738 17.4407 20.3185 17.4407C16.5967 17.4407 13.6797 14.4935 13.6797 10.7142C13.6797 6.9348 16.5967 4.02227 20.352 4.02227C24.0738 3.9876 27.0244 6.96947 27.0244 10.7142ZM17.1332 10.7488C17.1332 12.7945 18.4744 14.2161 20.352 14.2161C22.1962 14.2161 23.5709 12.7252 23.5709 10.7488C23.5709 8.7378 22.1962 7.21219 20.352 7.21219C18.4744 7.21219 17.1332 8.66845 17.1332 10.7488Z" fill="#293157"/>
<path d="M41.7767 15.9494V19.5554C41.7767 20.561 41.0726 21.2544 40.1673 21.2544C39.2285 21.2544 38.5243 20.4916 38.5243 19.5554V17.1283H30.0414V19.5208C30.0414 20.5263 29.3373 21.2544 28.432 21.2544C27.4932 21.2544 26.7891 20.4916 26.7891 19.5208V15.9494C26.7891 15.0479 27.3926 14.3198 28.2308 14.2158C29.1696 13.0369 29.5049 10.9219 29.6726 7.48923C29.7061 6.83045 29.7396 6.34502 29.7396 5.99829C29.7732 4.99278 30.4773 4.29932 31.4832 4.29932H38.0214C39.0273 4.29932 39.7649 5.06212 39.7649 6.10231V14.2158H40.1002C41.039 14.1811 41.7767 14.9439 41.7767 15.9494ZM36.3449 7.24652H32.7908C32.7573 7.45456 32.7573 7.73194 32.7573 8.00933C32.6232 10.8178 32.2544 12.7595 31.6173 14.1811H36.3449V7.24652Z" fill="#293157"/>
<path d="M43.3008 15.8937V6.25465C43.3008 5.24913 44.0384 4.48633 44.9773 4.48633H52.7561C53.7284 4.48633 54.4661 5.24913 54.4661 6.25465V15.8937C54.4661 16.8992 53.7284 17.6621 52.7561 17.6621C51.8173 17.6621 51.0796 16.8992 51.0796 15.8937V7.43353H46.6873V15.8937C46.6873 16.8992 45.9496 17.6621 45.0108 17.6621C44.072 17.6621 43.3008 16.8992 43.3008 15.8937Z" fill="#293157"/>
<path d="M70.0927 10.9009C70.0927 14.7843 67.5445 17.6621 64.0575 17.6621C62.5151 17.6621 61.2074 17.1073 60.3357 16.1018V20.5746C60.3357 21.5802 59.598 22.343 58.6592 22.343C57.6869 22.343 56.9492 21.5802 56.9492 20.5746V5.90797C56.9492 4.90245 57.6869 4.17432 58.6257 4.17432C59.531 4.17432 60.2016 4.86778 60.2686 5.83862C61.1069 4.79843 62.448 4.20899 64.0575 4.20899C67.5445 4.17432 70.0927 6.98283 70.0927 10.9009ZM66.6392 10.9355C66.6392 8.85517 65.298 7.36423 63.4204 7.36423C61.5427 7.36423 60.2686 8.78582 60.2686 10.9009C60.2686 13.0159 61.5427 14.4722 63.4204 14.4722C65.298 14.4722 66.6392 12.9813 66.6392 10.9355Z" fill="#293157"/>
<path d="M84.4092 10.9007C84.4092 14.6454 81.4586 17.6272 77.7033 17.6272C73.9815 17.6272 71.0645 14.68 71.0645 10.9007C71.0645 7.12133 73.9815 4.2088 77.7368 4.2088C81.4251 4.17412 84.4092 7.156 84.4092 10.9007ZM74.4845 10.9354C74.4845 12.9811 75.8256 14.4026 77.7033 14.4026C79.5474 14.4026 80.9221 12.9117 80.9221 10.9354C80.9221 8.92432 79.5474 7.39871 77.7033 7.39871C75.8592 7.39871 74.4845 8.85497 74.4845 10.9354Z" fill="#293157"/>
<path d="M86.1191 16.6848V6.76832C86.1191 5.76281 86.8568 5 87.7956 5C88.3991 5 88.8685 5.31206 89.2038 5.72813L93.0597 10.9638L96.9156 5.72813C97.2174 5.31206 97.6868 5 98.2903 5C99.2627 5 100 5.76281 100 6.76832V16.6848C100 17.6903 99.2627 18.4878 98.2903 18.4878C97.318 18.4878 96.6138 17.725 96.6138 16.6848V11.6225L94.0321 14.9512C93.7974 15.2285 93.4286 15.4019 93.0262 15.4019C92.6238 15.4019 92.2215 15.2632 91.9868 14.9512L89.4386 11.6225V16.6848C89.4386 17.6903 88.7344 18.4878 87.7621 18.4878C86.8568 18.4878 86.1191 17.6903 86.1191 16.6848Z" fill="#293157"/>
</svg>

<svg viewBox="0 0 100 23" fill="none" xmlns="http://www.w3.org/2000/svg"><path d="M12.875 12.1c0 2.948-2.28 5.028-5.465 5.028H1.744C.738 17.128 0 16.366 0 15.325V1.803C0 .763.738 0 1.744 0H5.9c3.085 0 5.264 1.942 5.264 4.785 0 1.283-.436 2.323-1.24 3.086 1.844.693 2.95 2.184 2.95 4.23zm-9.59-9.083v3.918h2.348c1.341 0 2.18-.763 2.18-1.977 0-1.213-.839-1.941-2.18-1.941H3.286zm6.204 8.98c0-1.352-.872-2.15-2.347-2.15H3.286v4.3h3.856c1.475 0 2.347-.798 2.347-2.15zm17.535-1.283c0 3.745-2.95 6.727-6.706 6.727-3.721 0-6.638-2.947-6.638-6.727 0-3.78 2.917-6.692 6.672-6.692 3.722-.034 6.672 2.947 6.672 6.692zm-9.89.035c0 2.045 1.34 3.467 3.218 3.467 1.844 0 3.219-1.49 3.219-3.467 0-2.011-1.375-3.537-3.219-3.537-1.878 0-3.219 1.456-3.219 3.537zm24.643 5.201v3.605c0 1.006-.704 1.7-1.61 1.7-.939 0-1.643-.763-1.643-1.7v-2.427h-8.483v2.393c0 1.005-.704 1.733-1.609 1.733-.939 0-1.643-.762-1.643-1.733v-3.572c0-.901.604-1.63 1.442-1.733.939-1.18 1.274-3.294 1.442-6.727.033-.659.067-1.144.067-1.49.033-1.006.737-1.7 1.743-1.7h6.538c1.006 0 1.744.763 1.744 1.803v8.114h.335c.939-.035 1.677.728 1.677 1.733zm-5.432-8.703H32.79c-.034.208-.034.485-.034.762-.134 2.809-.503 4.75-1.14 6.172h4.728V7.247zm6.955 8.647v-9.64c0-1.005.738-1.768 1.677-1.768h7.78c.971 0 1.71.763 1.71 1.769v9.639c0 1.005-.739 1.768-1.71 1.768-.94 0-1.677-.763-1.677-1.768v-8.46h-4.393v8.46c0 1.005-.737 1.768-1.676 1.768s-1.71-.763-1.71-1.768zM70.093 10.9c0 3.884-2.549 6.762-6.035 6.762-1.543 0-2.85-.555-3.722-1.56v4.473c0 1.005-.738 1.768-1.677 1.768-.972 0-1.71-.763-1.71-1.768V5.908c0-1.006.738-1.734 1.677-1.734.905 0 1.576.694 1.643 1.665.838-1.04 2.179-1.63 3.789-1.63 3.486-.035 6.035 2.774 6.035 6.692zm-3.454.035c0-2.08-1.341-3.57-3.219-3.57-1.877 0-3.151 1.42-3.151 3.536 0 2.115 1.274 3.571 3.151 3.571 1.878 0 3.22-1.49 3.22-3.537zM84.41 10.9c0 3.745-2.951 6.727-6.707 6.727-3.722 0-6.639-2.947-6.639-6.726 0-3.78 2.918-6.692 6.673-6.692 3.688-.035 6.672 2.947 6.672 6.692zm-9.925.035c0 2.046 1.34 3.468 3.218 3.468 1.844 0 3.22-1.491 3.22-3.468 0-2.01-1.376-3.536-3.22-3.536-1.844 0-3.219 1.456-3.219 3.536zm11.635 5.75V6.768c0-1.005.737-1.768 1.676-1.768.603 0 1.072.312 1.408.728l3.856 5.236 3.856-5.236c.301-.416.77-.728 1.374-.728.973 0 1.71.763 1.71 1.768v9.917c0 1.005-.737 1.803-1.71 1.803-.972 0-1.676-.763-1.676-1.803v-5.062l-2.582 3.328c-.235.277-.603.45-1.006.45-.402 0-.804-.138-1.04-.45l-2.547-3.329v5.063c0 1.005-.705 1.803-1.677 1.803-.905 0-1.643-.798-1.643-1.803z" fill="#293157"/></svg>
